storage/app/icons/phosphoricons/light/floppy-disk-light.svg

<svg xmlns="http://www.w3.org/2000/svg" fill="currentColor" viewBox="0 0 256 256"><path d="M217.9 73.42 182.58 38.1a13.9 13.9 0 0 0-9.89-4.1H48a14 14 0 0 0-14 14v160a14 14 0 0 0 14 14h160a14 14 0 0 0 14-14V83.31a13.9 13.9 0 0 0-4.1-9.89M170 210H86v-58a2 2 0 0 1 2-2h80a2 2 0 0 1 2 2Zm40-2a2 2 0 0 1-2 2h-26v-58a14 14 0 0 0-14-14H88a14 14 0 0 0-14 14v58H48a2 2 0 0 1-2-2V48a2 2 0 0 1 2-2h124.69a2 2 0 0 1 1.41.58l35.32 35.32a2 2 0 0 1 .58 1.41ZM158 72a6 6 0 0 1-6 6H96a6 6 0 0 1 0-12h56a6 6 0 0 1 6 6"/></svg>

<svg xmlns="http://www.w3.org/2000/svg" viewBox="0 0 256 256" fill="currentColor"><path d="M217.9,73.42,182.58,38.1a13.9,13.9,0,0,0-9.89-4.1H48A14,14,0,0,0,34,48V208a14,14,0,0,0,14,14H208a14,14,0,0,0,14-14V83.31A13.9,13.9,0,0,0,217.9,73.42ZM170,210H86V152a2,2,0,0,1,2-2h80a2,2,0,0,1,2,2Zm40-2a2,2,0,0,1-2,2H182V152a14,14,0,0,0-14-14H88a14,14,0,0,0-14,14v58H48a2,2,0,0,1-2-2V48a2,2,0,0,1,2-2H172.69a2,2,0,0,1,1.41.58L209.42,81.9a2,2,0,0,1,.58,1.41ZM158,72a6,6,0,0,1-6,6H96a6,6,0,0,1,0-12h56A6,6,0,0,1,158,72Z"/></svg>
